X: 16254
T: Greig's Pipes
R: reel
M: 4/4
K: Amixolydian
c3e feaf|eA c/B/A BAFA|ce e/e/e fece|b2ba bafe|
c3e feaf|eA c/B/A BAFA|ce e/e/e feaf|ecBc A2AB:|
|:c2cB cBAB|c/c/c Ac BAAA|c/c/c cB cBAc|BAcB AAAB|
c2cB cBAB|c/c/c Ac BAAA|c/c/c cB cBAc|1 BAcB AAAB:|2 BAcB AAAF||
|:EAcA BAcA|EAcA BA F/F/F|EAcA BAce|afec B2AF|
EAcA BAcA|EAcA BA F/F/F|EAcA BAce|1 afec A3F:|2 afec ABcd||

